packages/core/src/svgs/tokens/branded/SN.svg

<svg width="24" height="24" viewBox="0 0 24 24" fill="none" xmlns="http://www.w3.org/2000/svg">
<path d="M12.3247 21.9863C11.306 21.9863 10.2935 21.9676 9.27467 21.9863C8.74975 22.0051 8.38726 21.6988 8.11851 21.0738C7.19351 18.9364 6.24978 16.8113 5.31854 14.6801C4.93104 13.7865 5.13105 13.2552 5.88103 13.2489C7.21852 13.2364 8.556 13.2615 9.88717 13.2489C10.431 13.2489 10.7998 13.5989 11.0747 14.2489C11.7435 15.8113 13.1185 18.8926 13.1185 18.8926C13.1185 18.8926 13.281 19.2864 13.4185 19.4926C13.5122 19.6363 13.9497 19.9051 14.3621 19.6113C14.7622 19.3238 14.7184 18.9864 14.4871 18.4614C13.7622 16.8052 13.0185 15.1551 12.3122 13.4802C12.1872 13.174 12.0497 12.7926 12.2622 12.4552C12.4185 12.1989 12.6747 11.9989 12.8747 11.9989C14.1872 11.9989 15.5059 12.0177 16.8247 11.9989C17.3497 11.9927 17.7246 12.2676 17.9871 12.8927C18.4371 13.9364 18.8809 14.9677 19.3496 15.9863C19.5871 16.4989 19.5371 16.9051 19.2495 17.3239C18.3059 18.6864 17.3934 20.0864 16.4184 21.405C16.2986 21.5613 16.1481 21.6913 15.9761 21.7869C15.8041 21.8826 15.6143 21.9419 15.4184 21.9613C14.3934 22.03 13.3559 21.9863 12.3247 21.9863Z" fill="#FFA529"/>
<path d="M11.6433 2.0178C12.6433 2.0178 13.6371 2.03655 14.6308 2.0053C15.1933 1.9928 15.5933 2.27404 15.887 2.96153C16.812 5.09901 17.762 7.21772 18.687 9.34895C19.0621 10.2051 18.8682 10.7427 18.1496 10.7489C16.812 10.7615 15.4809 10.7489 14.1496 10.7489C13.2746 10.7489 12.8997 9.72388 12.8997 9.72388L10.7997 5.01775C10.7997 5.01775 10.6371 4.61777 10.5372 4.45527C10.4684 4.33652 10.0559 4.05527 9.64966 4.33026C9.22471 4.62401 9.31833 5.11151 9.52469 5.574C10.1747 7.04898 10.8872 8.51771 11.5246 10.0115C11.7246 10.5052 12.1371 11.0177 11.7871 11.5802C11.5809 11.9176 11.1621 12.0051 10.6934 11.9988C9.53096 11.9802 8.36842 11.9739 7.19968 11.9988C6.65593 12.0114 6.26219 11.7364 5.98719 11.074C5.5622 10.0552 5.11221 9.04896 4.65596 8.05522C4.41222 7.51773 4.45596 7.09897 4.76847 6.65524C5.6872 5.3365 6.56843 3.96777 7.51842 2.68654C7.64763 2.51415 7.80969 2.36905 7.99528 2.25963C8.18085 2.15021 8.38627 2.07864 8.59966 2.04905C9.61218 1.96155 10.6308 2.0178 11.6433 2.0178Z" fill="#1740FF"/>
</svg>

<svg xmlns="http://www.w3.org/2000/svg" width="24" height="24" fill="none" viewBox="0 0 24 24">
    <path fill="#FFA529" d="M12.325 21.986c-1.019 0-2.031-.018-3.05 0-.525.02-.888-.287-1.156-.912-.925-2.138-1.87-4.263-2.8-6.394-.388-.893-.188-1.425.562-1.431 1.338-.013 2.675.012 4.006 0 .544 0 .913.35 1.188 1a466 466 0 0 0 2.043 4.644s.163.393.3.6c.094.143.532.412.944.118.4-.287.356-.625.125-1.15-.725-1.656-1.469-3.306-2.175-4.98-.125-.307-.262-.688-.05-1.026.156-.256.413-.456.613-.456 1.312 0 2.63.019 3.95 0 .525-.006.9.269 1.162.894.45 1.043.894 2.075 1.363 3.093.237.513.187.92-.1 1.338-.944 1.362-1.857 2.762-2.832 4.081a1.44 1.44 0 0 1-1 .556c-1.025.069-2.062.025-3.093.025"/>
    <path fill="#1740FF" d="M11.643 2.018c1 0 1.994.019 2.988-.013.562-.012.962.269 1.256.957.925 2.137 1.875 4.256 2.8 6.387.375.856.181 1.394-.537 1.4-1.338.012-2.67 0-4 0-.875 0-1.25-1.025-1.25-1.025l-2.1-4.706s-.163-.4-.263-.563c-.069-.118-.481-.4-.887-.125-.425.294-.332.782-.125 1.244.65 1.475 1.362 2.944 2 4.438.2.493.612 1.006.262 1.568-.206.338-.625.425-1.094.419a94 94 0 0 0-3.493 0c-.544.012-.938-.263-1.213-.925a94 94 0 0 0-1.331-3.019c-.244-.537-.2-.956.112-1.4.92-1.319 1.8-2.687 2.75-3.968A1.63 1.63 0 0 1 8.6 2.049c1.012-.087 2.03-.031 3.043-.031"/>
</svg>
